static/icons/cube.svg

<svg width="24" height="24" viewBox="0 0 24 24" fill="none" xmlns="http://www.w3.org/2000/svg">
<path d="M20.66 7.25999C20.66 7.18999 20.56 7.11999 20.51 7.04999L20.42 6.94999C20.1872 6.66249 19.8934 6.43024 19.56 6.26999L13.16 3.26999C12.8057 3.10671 12.4201 3.02216 12.03 3.02216C11.6399 3.02216 11.2543 3.10671 10.9 3.26999L4.5 6.26999C4.16826 6.43296 3.87507 6.66478 3.64 6.94999L3.52 6.99999C3.46183 7.06012 3.41144 7.12731 3.37 7.19999C3.13144 7.57721 3.00326 8.01368 3 8.45999V15.52C3.00134 15.997 3.13964 16.4635 3.39847 16.8642C3.65729 17.2648 4.02574 17.5827 4.46 17.78L10.86 20.78C11.2157 20.9448 11.603 21.0301 11.995 21.0301C12.387 21.0301 12.7743 20.9448 13.13 20.78L19.53 17.78C19.9631 17.5856 20.3315 17.2714 20.592 16.8746C20.8524 16.4777 20.994 16.0146 21 15.54V8.45999C20.9949 8.03695 20.8775 7.62285 20.66 7.25999ZM11.71 5.05999C11.8015 5.02036 11.9002 4.99992 12 4.99992C12.0998 4.99992 12.1985 5.02036 12.29 5.05999L17.62 7.53999L12 10.15L6.38 7.53999L11.71 5.05999ZM5.3 16C5.21293 15.9662 5.1379 15.9073 5.08447 15.8307C5.03104 15.7541 5.00163 15.6634 5 15.57V9.09999L11 11.89V18.61L5.3 16ZM18.69 16L13 18.61V11.89L19 9.09999V15.54C19.0023 15.6393 18.9737 15.7369 18.9182 15.8193C18.8626 15.9017 18.7829 15.9648 18.69 16Z" fill="black"/>
</svg>

<svg xmlns="http://www.w3.org/2000/svg" width="24" height="24" fill="none"><path fill="#000" d="M20.66 7.26c0-.07-.1-.14-.15-.21l-.09-.1a2.5 2.5 0 0 0-.86-.68l-6.4-3a2.7 2.7 0 0 0-2.26 0l-6.4 3a2.6 2.6 0 0 0-.86.68L3.52 7a1 1 0 0 0-.15.2A2.39 2.39 0 0 0 3 8.46v7.06a2.49 2.49 0 0 0 1.46 2.26l6.4 3a2.7 2.7 0 0 0 2.27 0l6.4-3A2.49 2.49 0 0 0 21 15.54V8.46a2.39 2.39 0 0 0-.34-1.2Zm-8.95-2.2a.73.73 0 0 1 .58 0l5.33 2.48L12 10.15 6.38 7.54l5.33-2.48ZM5.3 16a.47.47 0 0 1-.3-.43V9.1l6 2.79v6.72L5.3 16Zm13.39 0L13 18.61v-6.72l6-2.79v6.44a.48.48 0 0 1-.31.46Z"/></svg>
